images/logo-dark.svg

<svg width="184" height="22" viewBox="0 0 184 22" fill="none" xmlns="http://www.w3.org/2000/svg">
<path d="M2.89032 7.72179L0 10.5137L2.89032 13.3154L5.78064 10.5137L2.89032 7.72179Z" fill="#DBB590"/>
<path d="M181.068 7.72667L178.177 10.5137L181.078 13.3154L183.963 10.5137L181.068 7.72667Z" fill="#DBB590"/>
<path fill-rule="evenodd" clip-rule="evenodd" d="M27.9511 9.3749C28.0956 9.081 28.1701 8.75967 28.1692 8.43441V2.22575C28.1639 1.63702 27.919 1.07385 27.4873 0.657545C27.0556 0.241235 26.4715 0.00510322 25.861 5.36551e-06H17.9443V21.0421H25.8661C26.475 21.0321 27.0561 20.7943 27.4867 20.3791C27.9173 19.9638 28.1639 19.4035 28.1743 18.8163V11.9341C28.1661 11.595 28.0876 11.2609 27.9433 10.9515C27.7989 10.6422 27.5918 10.3638 27.334 10.133C27.5957 9.92781 27.8065 9.66879 27.9511 9.3749ZM21.685 3.60708H24.3981V8.68822H21.685V3.60708ZM21.685 12.2953H24.3981V17.4057H21.685V12.2953Z" fill="#DBB590"/>
<path fill-rule="evenodd" clip-rule="evenodd" d="M44.1965 0.657545C43.7648 0.241235 43.1807 0.00510322 42.5702 5.36551e-06H36.9515C36.6482 -0.000637489 36.3478 0.0564922 36.0674 0.168118C35.7871 0.279745 35.5324 0.443669 35.3179 0.650477C35.1034 0.857283 34.9334 1.1029 34.8177 1.37323C34.7019 1.64356 34.6427 1.93328 34.6433 2.22575V18.8212C34.6486 19.41 34.8935 19.9731 35.3252 20.3894C35.757 20.8057 36.341 21.0419 36.9515 21.047H42.5702C43.1791 21.0369 43.7602 20.7992 44.1908 20.384C44.6214 19.9687 44.868 19.4084 44.8784 18.8212V2.22575C44.8731 1.63702 44.6282 1.07385 44.1965 0.657545ZM38.3942 3.60708H41.1022L41.1073 17.4057H38.3942V3.60708Z" fill="#DBB590"/>
<path fill-rule="evenodd" clip-rule="evenodd" d="M56.546 12.2953L58.0645 21.0421H61.7951L60.2361 12.0854C60.6317 11.9131 60.9676 11.6346 61.2037 11.2832C61.4398 10.9318 61.566 10.5224 61.5673 10.1037V2.22575C61.5693 1.93538 61.512 1.64748 61.3986 1.37848C61.2852 1.10947 61.118 0.864641 60.9065 0.657961C60.6949 0.45128 60.4433 0.286797 60.1658 0.173904C59.8884 0.0610128 59.5906 0.00192081 59.2895 5.36551e-06H51.3727V21.0421H55.1134V12.2953H56.546ZM55.1033 3.60708H57.8165V8.68822H55.1033V3.60708Z" fill="#DBB590"/>
<path fill-rule="evenodd" clip-rule="evenodd" d="M77.1188 0.657545C76.687 0.241235 76.103 0.00510322 75.4925 5.36551e-06H69.8536C69.2463 0.00643954 68.6662 0.243928 68.2396 0.660779C67.813 1.07763 67.5744 1.6401 67.5757 2.22575V18.8212C67.581 19.41 67.8259 19.9731 68.2576 20.3894C68.6894 20.8057 69.2734 21.0419 69.8839 21.047H75.4925C76.1014 21.0369 76.6825 20.7992 77.1131 20.384C77.5437 19.9687 77.7903 19.4084 77.8007 18.8212V2.22575C77.7954 1.63702 77.5505 1.07385 77.1188 0.657545ZM71.3114 3.60708H74.0245V17.4057H71.3114V3.60708Z" fill="#DBB590"/>
<path fill-rule="evenodd" clip-rule="evenodd" d="M93.828 0.657545C93.3962 0.241235 92.8122 0.00510322 92.2016 5.36551e-06H84.2849V21.047H92.2016C92.8106 21.0369 93.3916 20.7992 93.8223 20.384C94.2529 19.9687 94.4994 19.4084 94.5099 18.8212V2.22575C94.5046 1.63702 94.2597 1.07385 93.828 0.657545ZM88.0256 3.60708H90.7388V17.4057H88.0256V3.60708Z" fill="#DBB590"/>
<path d="M104.922 5.36551e-06H101.181V21.0421H104.922V5.36551e-06Z" fill="#DBB590"/>
<path d="M121.571 21.0421V5.36551e-06H117.815V8.62477L115.071 5.36551e-06H111.361V21.0421H115.086V11.8511L117.83 21.0421H121.571Z" fill="#DBB590"/>
<path d="M137.598 9.34577C137.166 8.92945 136.582 8.69332 135.971 8.68822H131.806V3.60708H134.519V7.32642L138.29 6.482V2.22575C138.285 1.63702 138.04 1.07385 137.608 0.657545C137.176 0.241235 136.592 0.00510322 135.982 5.36551e-06H130.363C130.061 0.000644472 129.761 0.0587225 129.482 0.170924C129.203 0.283126 128.949 0.44725 128.736 0.653929C128.522 0.86061 128.353 1.1058 128.238 1.37549C128.123 1.64518 128.064 1.9341 128.065 2.22575V10.0793C128.066 10.371 128.126 10.6596 128.242 10.9288C128.358 11.198 128.529 11.4425 128.743 11.6483C128.957 11.8541 129.212 12.0171 129.491 12.1281C129.771 12.2391 130.071 12.2959 130.373 12.2953H134.519V17.4106H131.806V13.6522L128.065 14.4918V18.8212C128.07 19.4083 128.314 19.97 128.743 20.386C129.173 20.8021 129.754 21.0393 130.363 21.047H135.971C136.58 21.0369 137.161 20.7992 137.592 20.384C138.023 19.9687 138.269 19.4084 138.28 18.8212V10.914C138.274 10.3252 138.03 9.76207 137.598 9.34577Z" fill="#DBB590"/>
<path d="M155.46 21.047L151.967 10.4942L155.49 5.36551e-06H151.689L148.818 8.68822H148.51V5.36551e-06H144.769V21.0421H148.51V12.3002H148.854L151.658 20.9249L151.689 21.047H155.46Z" fill="#DBB590"/>
<path d="M165.325 5.36551e-06H161.584V21.0421H165.325V5.36551e-06Z" fill="#DBB590"/>
</svg>

<svg xmlns="http://www.w3.org/2000/svg" width="184" height="22" fill="none" viewBox="0 0 184 22"><path fill="#DBB590" d="M2.89 7.72 0 10.52l2.89 2.8 2.9-2.8-2.9-2.8ZM181.07 7.73l-2.9 2.78 2.9 2.8 2.9-2.8-2.9-2.78Z"/><path fill="#DBB590" fill-rule="evenodd" d="M27.95 9.37c.15-.29.22-.61.22-.94v-6.2a2.2 2.2 0 0 0-.68-1.57A2.37 2.37 0 0 0 25.86 0h-7.92v21.04h7.93a2.4 2.4 0 0 0 1.62-.66c.43-.42.67-.98.68-1.56v-6.89a2.46 2.46 0 0 0-.84-1.8c.27-.2.48-.46.62-.76Zm-6.27-5.76h2.72v5.08h-2.71V3.6Zm0 8.69h2.72v5.1h-2.71v-5.1ZM44.2.66A2.37 2.37 0 0 0 42.57 0h-5.62a2.38 2.38 0 0 0-1.63.65 2.22 2.22 0 0 0-.68 1.58v16.6c0 .58.25 1.14.69 1.56.43.42 1.01.65 1.62.66h5.62a2.4 2.4 0 0 0 1.62-.67c.43-.41.68-.97.69-1.56V2.22A2.2 2.2 0 0 0 44.2.67ZM38.4 3.6h2.7v13.8h-2.7V3.6ZM56.55 12.3l1.51 8.74h3.74l-1.56-8.95c.4-.18.73-.46.96-.8.24-.36.37-.77.37-1.19V2.23A2.14 2.14 0 0 0 60.9.66 2.3 2.3 0 0 0 59.29 0h-7.92v21.04h3.74V12.3h1.44ZM55.1 3.6h2.72V8.7H55.1V3.6ZM77.12.66A2.37 2.37 0 0 0 75.49 0h-5.64c-.6 0-1.18.24-1.61.66-.43.42-.67.98-.66 1.57v16.6c0 .58.25 1.14.68 1.56.43.42 1.01.65 1.62.66h5.61a2.4 2.4 0 0 0 1.62-.67c.43-.41.68-.97.7-1.56V2.22a2.2 2.2 0 0 0-.7-1.56Zm-5.8 2.95h2.7v13.8h-2.7V3.6ZM93.83.66A2.37 2.37 0 0 0 92.2 0h-7.92v21.05h7.92a2.4 2.4 0 0 0 1.62-.67c.43-.41.68-.97.69-1.56V2.22a2.2 2.2 0 0 0-.68-1.56Zm-5.8 2.95h2.7v13.8h-2.7V3.6Z" clip-rule="evenodd"/><path fill="#DBB590" d="M104.92 0h-3.74v21.04h3.74V0ZM121.57 21.04V0h-3.75v8.62L115.06 0h-3.7v21.04h3.72v-9.19l2.74 9.2h3.74ZM137.6 9.35a2.37 2.37 0 0 0-1.63-.66h-4.16V3.6h2.7v3.72l3.78-.85V2.23a2.2 2.2 0 0 0-.68-1.57 2.37 2.37 0 0 0-1.63-.66h-5.62a2.38 2.38 0 0 0-1.62.65 2.2 2.2 0 0 0-.68 1.58v7.85a2.16 2.16 0 0 0 .68 1.57 2.31 2.31 0 0 0 1.63.65h4.15v5.11h-2.71v-3.76l-3.75.84v4.33c.01.59.25 1.15.68 1.57.43.41 1.01.65 1.62.66h5.61a2.4 2.4 0 0 0 1.62-.67c.43-.41.68-.97.69-1.56v-7.9a2.2 2.2 0 0 0-.68-1.57ZM155.46 21.05l-3.5-10.56L155.5 0h-3.8l-2.87 8.69h-.31V0h-3.74v21.04h3.74V12.3h.34l2.8 8.62.04.13h3.77ZM165.32 0h-3.74v21.04h3.74V0Z"/></svg>
